icons/tokens/0x0bc529c00C6401aEF6D220BE8C6Ea1667F6Ad93e/logo.svg

<svg width="32" height="32" viewBox="0 0 32 32" fill="none" xmlns="http://www.w3.org/2000/svg">
<path fill-rule="evenodd" clip-rule="evenodd" d="M32 16C32 13.9059 31.5834 11.8118 30.7821 9.87712C29.9808 7.9424 28.7946 6.16704 27.3136 4.6864C25.833 3.20544 24.0576 2.0192 22.1229 1.21792C20.1882 0.41664 18.0941 0 16 0C13.9059 0 11.8118 0.41664 9.87712 1.21792C7.9424 2.0192 6.16704 3.20544 4.6864 4.6864C3.20544 6.16704 2.0192 7.9424 1.21792 9.87712C0.41664 11.8118 0 13.9059 0 16C0 18.0941 0.41664 20.1882 1.21792 22.1229C2.0192 24.0576 3.20544 25.833 4.6864 27.3136C6.16704 28.7946 7.9424 29.9808 9.87712 30.7821C11.8118 31.5834 13.9059 32 16 32C18.0941 32 20.1882 31.5834 22.1229 30.7821C24.0576 29.9808 25.833 28.7946 27.3136 27.3136C28.7946 25.833 29.9808 24.0576 30.7821 22.1229C31.5834 20.1882 32 18.0941 32 16Z" fill="url(#paint0_linear)"/>
<path fill-rule="evenodd" clip-rule="evenodd" d="M15.1731 8.77601H16.8269V23.2246H15.1731V8.77601Z" fill="white"/>
<path fill-rule="evenodd" clip-rule="evenodd" d="M14.2346 15.5728V13.8461C12.9082 13.1936 11.9949 11.8285 11.9949 10.2502C11.9949 8.03904 13.7882 6.24576 16 6.24576C18.4835 6.24576 20.2768 8.03904 20.2768 10.2502C20.2768 10.8077 20.1623 11.3386 19.8874 11.9693L19.1811 9.67328L17.7655 10.1158L19.0208 14.8941L23.8944 13.1011L23.3021 11.7037L21.4845 12.3258C21.8135 11.6125 21.8781 11.088 21.8781 10.2502C21.8781 7.15392 19.368 4.64384 16 4.64384C12.9037 4.64384 10.3936 7.15392 10.3936 10.2502C10.3936 12.7296 12.0035 14.833 14.2346 15.5728Z" fill="white"/>
<path fill-rule="evenodd" clip-rule="evenodd" d="M17.7654 16.4278V18.1546C19.0918 18.8074 20.0051 20.1722 20.0051 21.7504C20.0051 23.9616 18.2118 25.7549 16 25.7549C13.5165 25.7549 11.7232 23.9616 11.7232 21.7504C11.7232 21.193 11.8378 20.6621 12.1126 20.0314L12.8189 22.3274L14.2346 21.8848L12.9792 17.1066L8.10559 18.8998L8.69791 20.297L10.5155 19.6749C10.1866 20.3882 10.1219 20.9126 10.1219 21.7504C10.1219 24.8467 12.632 27.3568 16 27.3568C19.0963 27.3568 21.6064 24.8467 21.6064 21.7504C21.6064 19.271 19.9965 17.1677 17.7654 16.4278Z" fill="white"/>
<defs>
<linearGradient id="paint0_linear" x1="-16" y1="16" x2="16" y2="48" gradientUnits="userSpaceOnUse">
<stop stop-color="#0077FC"/>
<stop offset="1" stop-color="#095EB5"/>
</linearGradient>
</defs>
</svg>

<svg width="32" height="32" fill="none" xmlns="http://www.w3.org/2000/svg"><path fill-rule="evenodd" clip-rule="evenodd" d="M32 16c0-2.094-.417-4.188-1.218-6.123a16.046 16.046 0 00-3.468-5.19 16.046 16.046 0 00-5.191-3.47A16.055 16.055 0 0016 0c-2.094 0-4.188.417-6.123 1.218a16.047 16.047 0 00-5.19 3.468 16.047 16.047 0 00-3.47 5.191A16.054 16.054 0 000 16c0 2.094.417 4.188 1.218 6.123a16.046 16.046 0 003.468 5.19 16.046 16.046 0 005.191 3.47A16.054 16.054 0 0016 32c2.094 0 4.188-.417 6.123-1.218a16.046 16.046 0 005.19-3.468 16.046 16.046 0 003.47-5.191A16.054 16.054 0 0032 16z" fill="url(#paint0_linear)"/><path fill-rule="evenodd" clip-rule="evenodd" d="M15.173 8.776h1.654v14.449h-1.654V8.776z" fill="#fff"/><path fill-rule="evenodd" clip-rule="evenodd" d="M14.235 15.573v-1.727A4.006 4.006 0 0116 6.246c2.483 0 4.277 1.793 4.277 4.004 0 .558-.115 1.089-.39 1.72l-.706-2.297-1.416.443 1.256 4.778 4.873-1.793-.592-1.397-1.817.622c.329-.713.393-1.238.393-2.076 0-3.096-2.51-5.606-5.878-5.606a5.606 5.606 0 00-1.765 10.929zM17.765 16.428v1.727a4.006 4.006 0 01-1.765 7.6c-2.483 0-4.277-1.793-4.277-4.005 0-.557.115-1.088.39-1.719l.706 2.296 1.416-.442-1.256-4.778L8.106 18.9l.592 1.397 1.817-.622c-.328.713-.393 1.238-.393 2.075 0 3.097 2.51 5.607 5.878 5.607a5.606 5.606 0 001.765-10.93z" fill="#fff"/><defs><linearGradient id="paint0_linear" x1="-16" y1="16" x2="16" y2="48" gradientUnits="userSpaceOnUse"><stop stop-color="#0077FC"/><stop offset="1" stop-color="#095EB5"/></linearGradient></defs></svg>
